X: 1795
T: Peggy O'Neill Schottische
B: australian traditional tunes wiki
M:4/4
L:1/8
R: Jig
Q: 1/4=100
K:D
V:1 
ABd|"D"d>A A>F A>d (3fed|"A7"c>G G>E G2A>B|c>G G>E G>B (3cBA|"D"B>F F>D F>A (3ABc|
"D"d>A A>F A>d (3fcd|"A7"c>G G>E G4|"D"f>f (3fed "A7"e>e (3edc|"D"d>A "A7"(3ABc "D"d2d>B||
"G"(3GBd d>Bd2d>B|e>B (3dcB "D7"A2A>F |D>F A>d f>f f>e|d>c (3edc"G"B2B>A|
"G"(3GBd d>Bd2d>B|e>B (3dcB "D7"A2A>F|D>F A>d f>f f>2e|(3ded (3cBA "G"G2-G2||
% abcbook-tune_id 6342d53af6edb9163490f5f7


% abcbook-boost 0
% abcbook-tablature 
% abcbook-transpose 
% abcbook-lastupdated 1665324384361
% abcbook-soundfonts 
% abcbook-repeats 1
% NFF Book 2017

